X:1
T:海底神殿　Underwater Shrine
T:海底神殿　Underwater Temple
T:ファイナルファンタジー　FinalFantasy
T:植松　伸夫　Uematsu Nobuo
T:Transcribed by Rakuzen
C:植松　伸夫　Uematsu Nobuo
Z:Transcribed by Rakuzen
%%score { 1 | 2 | 3 }
L:1/8
Q:1/4=150
M:4/4
K:Gb
V:1 treble nm="ピアノ" snm="Pno."
V:2 treble 
V:3 bass 
V:1
|:"^eb phrygian?" !>!c4 !>!A2 !>!c2 | !>!B2 !>!A2 !>!G2 !>!B2 | !>!A8- | !>!A8 | %4
 !>!c4 !>!d2 !>!c2 | !>!B2 !>!A2 !>!G2 !>!_f2 | !>!e8- | !>!e4 z2 !>!E/!>!F/!>!G/!>!A/ | %8
 !>!B2 z2 !>!B2 !>!d2 | !>!c2 !>!B2 !>!A2 !>!e2 | !>!d2 z2 !>!d2 !>!_f2 | !>!e2 z2 !>!A2 z2 | %12
 z4 !>!e2 !>!d2 | !>!c2 !>!B2 !>!A2 !>!c2 | !>!B8- | !>!B8 :| !>!c4 !>!A2 !>!c2 | %17
 !>!B2 !>!A2 !>!G2 !>!B2 |!p! !>!A8- | !>!A8 |!pp! !>!c4 !>!d2 !>!c2 | !>!B2 !>!A2 !>!G2 !>!_f2 | %22
!ppp! !>!e8- | !>!e4 z2 !>!E/!>!F/!>!G/!>!A/ |] %24
V:2
|: CEDE CEDE | B,EDE B,EDE | A,EDE A,EDE | B,EDE B,EDE | CEDE CEDE | B,EDE B,EDE | A,EDE A,EDE | %7
 A,DCD A,DCD | EE z B, EE z B, | EE z B, EE z B, | _FF z C FF z C | GG z C GG z C | A4- ACEA | %13
 _F4- FA,CF | =G4- GB,DG | z B,D_F =GFDB, :| CEDE CEDE | B,EDE B,EDE | A,EDE A,EDE | B,EDE B,EDE | %20
 CEDE CEDE | B,EDE B,EDE | A,EDE A,EDE | A,DCD A,DCD |] %24
V:3
|: .A,.A, z2 z4 | .G,.G, z2 z4 | ._F,.F, z2 z4 | .G,.G, z2 z4 | .A,.A, z2 z4 | .G,.G, z2 z4 | %6
 ._F,.F, z2 z4 | ._F,.F, z2 z4 | .=G,.G, z2[K:treble] z E=GE | .A,.A, z2 z EAE | .B,.B, z2 z GBG | %11
 .C.C z2 z GcG | _F8 | D8 | E8 | _F8 :|[K:bass] .A,.A, z2 z4 | .G,.G, z2 z4 | ._F,.F, z2 z4 | %19
 .G,.G, z2 z4 | .A,.A, z2 z4 | .G,.G, z2 z4 | ._F,.F, z2 z4 | ._F,.F, z2 z4 |] %24

